img/scroll-down.svg

<svg width="30" height="29" viewBox="0 0 30 29" fill="none" xmlns="http://www.w3.org/2000/svg">
<path d="M15.0445 26.55C8.47841 26.55 3.15558 21.2271 3.15558 14.6611C3.15558 8.09505 8.47841 2.77222 15.0445 2.77222C21.6105 2.77222 26.9334 8.09505 26.9334 14.6611C26.9261 21.2241 21.6075 26.5427 15.0445 26.55ZM15.0445 5.14999C9.79162 5.14999 5.53336 9.40826 5.53336 14.6611C5.53336 19.914 9.79162 24.1722 15.0445 24.1722C20.2973 24.1722 24.5556 19.914 24.5556 14.6611C24.5496 9.41071 20.2948 5.15589 15.0445 5.14999ZM15.0445 20.6056L9.10002 14.6611L10.7764 12.9848L13.8556 16.0521V8.71666H16.2334V16.0521L19.3126 12.9848L20.9889 14.6611L15.0445 20.6056Z" fill="#928A97"/>
</svg>

<svg width="30" height="29" fill="none" xmlns="http://www.w3.org/2000/svg"><path d="M15.044 26.55c-6.566 0-11.888-5.323-11.888-11.889 0-6.566 5.322-11.889 11.888-11.889s11.89 5.323 11.89 11.89c-.008 6.562-5.326 11.88-11.89 11.888Zm0-21.4a9.511 9.511 0 1 0 9.512 9.511 9.522 9.522 0 0 0-9.512-9.511Zm0 15.456L9.1 14.66l1.676-1.676 3.08 3.067V8.717h2.377v7.335l3.08-3.067 1.676 1.676-5.945 5.945Z" fill="#928A97"/></svg>
